resources/assets/img/patterns/molecules/personalised-cover-download.svg

<?xml version="1.0" encoding="UTF-8"?>
<svg width="138px" height="174px" viewBox="0 0 138 174" version="1.1" xmlns="http://www.w3.org/2000/svg" xmlns:xlink="http://www.w3.org/1999/xlink">
    <!-- Generator: Sketch 46.2 (44496) - http://www.bohemiancoding.com/sketch -->
    <title>Group</title>
    <desc>Created with Sketch.</desc>
    <defs></defs>
    <g id="desktop" stroke="none" stroke-width="1" fill="none" fill-rule="evenodd">
        <g id="author-covers" transform="translate(-443.000000, -214.000000)">
            <g id="Group" transform="translate(443.000000, 214.000000)">
                <rect id="Rectangle-23" stroke="#212121" stroke-width="4" x="10" y="10" width="118" height="154" rx="3"></rect>
                <rect id="Rectangle-23" stroke="#212121" stroke-width="4" x="2" y="2" width="134" height="170" rx="3"></rect>
                <path d="M42.300417,39.648 C42.300417,39.2033311 42.2375843,38.778002 42.111917,38.372 C41.9862497,37.965998 41.7880851,37.6083349 41.517417,37.299 C41.246749,36.9896651 40.9035858,36.7431676 40.487917,36.5595 C40.0722483,36.3758324 39.5840865,36.284 39.023417,36.284 C37.9794118,36.284 37.0949207,36.5981635 36.369917,37.2265 C35.6449134,37.8548365 35.2437508,38.6619951 35.166417,39.648 L42.300417,39.648 Z M45.780417,41.214 L45.780417,41.678 C45.780417,41.8326674 45.7707505,41.9873326 45.751417,42.142 L35.166417,42.142 C35.2050839,42.6446692 35.3355826,43.1038313 35.557917,43.5195 C35.7802515,43.9351687 36.0750819,44.2928318 36.442417,44.5925 C36.8097522,44.8921682 37.2254147,45.1289991 37.689417,45.303 C38.1534194,45.4770009 38.6367479,45.564 39.139417,45.564 C40.0094214,45.564 40.7440807,45.4045016 41.343417,45.0855 C41.9427534,44.7664984 42.4357484,44.3266695 42.822417,43.766 L45.142417,45.622 C43.7697435,47.4780093 41.7784301,48.406 39.168417,48.406 C38.085745,48.406 37.0900883,48.236835 36.181417,47.8985 C35.2727458,47.560165 34.4849204,47.0816698 33.817917,46.463 C33.1509137,45.8443302 32.6289189,45.0855045 32.251917,44.1865 C31.8749152,43.2874955 31.686417,42.2676724 31.686417,41.127 C31.686417,40.0056611 31.8749152,38.9858379 32.251917,38.0675 C32.6289189,37.1491621 33.1460804,36.3661699 33.803417,35.7185 C34.4607537,35.0708301 35.2389125,34.5681685 36.137917,34.2105 C37.0369215,33.8528315 38.0084118,33.674 39.052417,33.674 C40.0190885,33.674 40.9132463,33.8334984 41.734917,34.1525 C42.5565878,34.4715016 43.2670807,34.9451635 43.866417,35.5735 C44.4657534,36.2018365 44.934582,36.9848286 45.272917,37.9225 C45.6112521,38.8601714 45.780417,39.9573271 45.780417,41.214 Z M50,27 L53.5409836,27 L53.5409836,44.6779661 L62,44.6779661 L62,48 L50,48 L50,27 Z M66,27 L70,27 L70,48 L66,48 L66,27 Z M75,27 L88,27 L88,30.2627119 L78.5842451,30.2627119 L78.5842451,36.0169492 L87.4595186,36.0169492 L87.4595186,39.1610169 L78.5842451,39.1610169 L78.5842451,48 L75,48 L75,27 Z M92,27 L105.482546,27 L105.482546,30.2627119 L95.6221766,30.2627119 L95.6221766,35.6016949 L104.965092,35.6016949 L104.965092,38.7457627 L95.6221766,38.7457627 L95.6221766,44.6779661 L106,44.6779661 L106,48 L92,48 L92,27 Z" id="eLIFE" fill="#212121"></path>
                <path d="M25.5,76 L65.5,76" id="Line" stroke="#B92B5B" stroke-width="4" stroke-linecap="round"></path>
                <path d="M25.5,86 L65.5,86" id="Line" stroke="#B92B5B" stroke-width="4" stroke-linecap="round"></path>
                <path d="M25.5,96 L45.5,96" id="Line" stroke="#B92B5B" stroke-width="4" stroke-linecap="round"></path>
                <path d="M23.5,136 L43.5,136" id="Line" stroke="#212121" stroke-width="4" stroke-linecap="round"></path>
                <path d="M59,136 L79,136" id="Line" stroke="#212121" stroke-width="4" stroke-linecap="round"></path>
                <path d="M95,136 L115,136" id="Line" stroke="#212121" stroke-width="4" stroke-linecap="round"></path>
                <path d="M23.5,143 L43.5,143" id="Line" stroke="#212121" stroke-width="4" stroke-linecap="round"></path>
                <path d="M59,143 L79,143" id="Line" stroke="#212121" stroke-width="4" stroke-linecap="round"></path>
                <path d="M95,143 L115,143" id="Line" stroke="#212121" stroke-width="4" stroke-linecap="round"></path>
                <path d="M23.5,150 L43.5,150" id="Line" stroke="#212121" stroke-width="4" stroke-linecap="round"></path>
                <path d="M59,150 L79,150" id="Line" stroke="#212121" stroke-width="4" stroke-linecap="round"></path>
                <path d="M95,150 L115,150" id="Line" stroke="#212121" stroke-width="4" stroke-linecap="round"></path>
            </g>
        </g>
    </g>
</svg>

<svg width="138" height="174" viewBox="0 0 138 174" xmlns="http://www.w3.org/2000/svg"><title>Group</title><g fill="none" fill-rule="evenodd"><rect stroke="#212121" stroke-width="4" x="10" y="10" width="118" height="154" rx="3"/><rect stroke="#212121" stroke-width="4" x="2" y="2" width="134" height="170" rx="3"/><path d="M42.3 39.648c0-.445-.062-.87-.188-1.276a2.92 2.92 0 0 0-.595-1.073 2.902 2.902 0 0 0-1.03-.74c-.415-.183-.903-.275-1.464-.275-1.044 0-1.928.314-2.653.943-.725.628-1.126 1.435-1.204 2.421H42.3zm3.48 1.566v.464c0 .155-.01.31-.029.464H35.166a3.447 3.447 0 0 0 1.276 2.45c.368.3.783.537 1.247.711.464.174.948.261 1.45.261.87 0 1.605-.16 2.204-.478a4.128 4.128 0 0 0 1.48-1.32l2.32 1.856c-1.373 1.856-3.365 2.784-5.975 2.784-1.082 0-2.078-.17-2.987-.508a7.049 7.049 0 0 1-2.363-1.435 6.47 6.47 0 0 1-1.566-2.276c-.377-.9-.566-1.92-.566-3.06 0-1.121.189-2.141.566-3.06a6.965 6.965 0 0 1 1.551-2.349 6.94 6.94 0 0 1 2.335-1.508 7.812 7.812 0 0 1 2.914-.536c.967 0 1.861.16 2.683.479a5.817 5.817 0 0 1 2.131 1.42c.6.629 1.069 1.412 1.407 2.35.338.937.507 2.034.507 3.291zM50 27h3.541v17.678H62V48H50V27zm16 0h4v21h-4V27zm9 0h13v3.263h-9.416v5.754h8.876v3.144h-8.876V48H75V27zm17 0h13.483v3.263h-9.86v5.339h9.342v3.144h-9.343v5.932H106V48H92V27z" fill="#212121"/><path d="M25.5 76h40M25.5 86h40M25.5 96h20" stroke="#B92B5B" stroke-width="4" stroke-linecap="round"/><path d="M23.5 136h20M59 136h20M95 136h20M23.5 143h20M59 143h20M95 143h20M23.5 150h20M59 150h20M95 150h20" stroke="#212121" stroke-width="4" stroke-linecap="round"/></g></svg>
